src/assets/icons/custom/truenas-enterprise-badge-color.svg

<svg xmlns="http://www.w3.org/2000/svg" viewBox="0 0 204 36" fill="none">
  <path fill="#0A95D3"
    d="M141.39 17.03c.61-.26 1.06-.65 1.35-1.15.29-.5.43-1.11.43-1.82s-.14-1.33-.43-1.85-.74-.92-1.35-1.2c-.61-.28-1.42-.42-2.41-.42h-3.78v6.84h3.82c.97 0 1.77-.13 2.38-.4h-.01ZM100.65 17.03c.61-.26 1.06-.65 1.35-1.15.29-.5.43-1.11.43-1.82s-.14-1.33-.43-1.85-.74-.92-1.35-1.2c-.61-.28-1.42-.42-2.41-.42h-3.78v6.84h3.82c.97 0 1.77-.13 2.38-.4h-.01ZM121.1 11.06c-.61-.31-1.42-.47-2.42-.47h-3.78v7.38h3.82c.98 0 1.78-.16 2.39-.48.61-.32 1.06-.76 1.35-1.32.29-.56.43-1.19.43-1.91s-.14-1.35-.43-1.9c-.29-.55-.74-.99-1.35-1.3h-.01Z" />
  <path fill="#0A95D3"
    d="M.89.11v35h203v-35H.89Zm20.73 26.91H8.99V8.15h12.52v2.45h-9.5v5.75h8.85v2.44h-8.85v5.78h9.62v2.45h-.01Zm22.77 0h-2.77L31.47 13.18h-.19v13.84h-3.01V8.15h2.79l10.16 13.86h.19V8.15h2.98v18.87Zm21.6-16.42h-6.23v16.42h-3V10.6h-6.22V8.15h15.45v2.45Zm18.78 16.42H72.14V8.15h12.52v2.45h-9.5v5.75h8.85v2.44h-8.85v5.78h9.62v2.45h-.01Zm18.02 0-4.06-7.15h-4.28v7.14h-3.01V8.14h7.12c1.55 0 2.83.25 3.86.76 1.02.5 1.79 1.2 2.3 2.09.51.89.76 1.91.76 3.07s-.26 2.17-.77 3.05c-.51.88-1.28 1.56-2.3 2.04-.19.09-.39.16-.6.23l4.42 7.64h-3.44Zm22.35-9.63c-.51.92-1.28 1.66-2.3 2.19-1.02.54-2.31.81-3.86.81h-4.09v6.64h-3.01V8.16H119c1.55 0 2.84.27 3.86.8s1.78 1.26 2.29 2.19c.51.92.76 1.96.76 3.12 0 1.16-.26 2.2-.77 3.13v-.01Zm18.39 9.63-4.06-7.15h-4.28v7.14h-3.01V8.14h7.12c1.55 0 2.83.25 3.86.76 1.02.5 1.79 1.2 2.3 2.09.51.89.76 1.91.76 3.07s-.26 2.17-.77 3.05c-.51.88-1.28 1.56-2.3 2.04-.19.09-.39.16-.6.23l4.42 7.64h-3.44Zm12.1 0h-3.01V8.15h3.01v18.87Zm20.33-2.37c-.58.83-1.42 1.48-2.52 1.96s-2.43.72-3.99.72-2.79-.22-3.88-.67c-1.09-.45-1.95-1.09-2.56-1.91-.62-.83-.96-1.81-1.02-2.94h3.02c.06.68.29 1.25.71 1.7.41.45.94.79 1.59 1 .65.22 1.36.33 2.13.33.85 0 1.61-.13 2.28-.38.67-.25 1.19-.61 1.57-1.07.38-.46.58-.99.58-1.61 0-.56-.17-1.02-.5-1.37-.33-.36-.79-.65-1.35-.88-.57-.23-1.21-.44-1.93-.62l-2.36-.61c-1.6-.41-2.86-1.02-3.8-1.82-.93-.8-1.4-1.86-1.4-3.17 0-1.09.31-2.04.94-2.85.62-.81 1.47-1.44 2.53-1.89 1.07-.45 2.27-.68 3.61-.68 1.34 0 2.55.22 3.58.67 1.04.45 1.85 1.06 2.45 1.85.6.78.91 1.68.94 2.7h-2.9c-.1-.87-.53-1.55-1.29-2.03-.75-.48-1.7-.72-2.85-.72-.82 0-1.53.12-2.12.36-.6.24-1.06.57-1.39 1-.33.43-.49.9-.49 1.43 0 .45.11.84.34 1.16.22.33.52.6.89.82.37.22.76.4 1.18.54.42.14.83.26 1.22.35l1.95.48c.64.15 1.29.35 1.96.6.67.25 1.29.58 1.86 1 .57.41 1.03.92 1.39 1.53.35.61.53 1.34.53 2.18 0 1.07-.29 2.02-.87 2.85l-.03-.01Zm19.84 2.37h-12.63V8.15h12.52v2.45h-9.5v5.75h8.85v2.44h-8.85v5.78h9.62v2.45h-.01Z" />
</svg>

<svg viewBox="0 0 204 36" xmlns="http://www.w3.org/2000/svg">
<path d="M141.39 17.03C142 16.77 142.45 16.38 142.74 15.88C143.03 15.38 143.17 14.77 143.17 14.06C143.17 13.35 143.03 12.73 142.74 12.21C142.45 11.69 142 11.29 141.39 11.01C140.78 10.73 139.97 10.59 138.98 10.59H135.2V17.43H139.02C139.99 17.43 140.79 17.3 141.4 17.03H141.39Z" fill="#0A95D3"/>
<path d="M100.65 17.03C101.26 16.77 101.71 16.38 102 15.88C102.29 15.38 102.43 14.77 102.43 14.06C102.43 13.35 102.29 12.73 102 12.21C101.71 11.69 101.26 11.29 100.65 11.01C100.04 10.73 99.23 10.59 98.24 10.59H94.46V17.43H98.28C99.25 17.43 100.05 17.3 100.66 17.03H100.65Z" fill="#0A95D3"/>
<path d="M121.1 11.06C120.49 10.75 119.68 10.59 118.68 10.59H114.9V17.97H118.72C119.7 17.97 120.5 17.81 121.11 17.49C121.72 17.17 122.17 16.73 122.46 16.17C122.75 15.61 122.89 14.98 122.89 14.26C122.89 13.54 122.75 12.91 122.46 12.36C122.17 11.81 121.72 11.37 121.11 11.06H121.1Z" fill="#0A95D3"/>
<path d="M0.890015 0.109985V35.11H203.89V0.109985H0.890015ZM21.62 27.02H8.99001V8.14999H21.51V10.6H12.01V16.35H20.86V18.79H12.01V24.57H21.63V27.02H21.62ZM44.39 27.02H41.62L31.47 13.18H31.28V27.02H28.27V8.14999H31.06L41.22 22.01H41.41V8.14999H44.39V27.02ZM65.99 10.6H59.76V27.02H56.76V10.6H50.54V8.14999H65.99V10.6ZM84.77 27.02H72.14V8.14999H84.66V10.6H75.16V16.35H84.01V18.79H75.16V24.57H84.78V27.02H84.77ZM102.79 27.02L98.73 19.87C98.66 19.87 98.61 19.87 98.54 19.87H94.45V27.01H91.44V8.13998H98.56C100.11 8.13998 101.39 8.38999 102.42 8.89999C103.44 9.39999 104.21 10.1 104.72 10.99C105.23 11.88 105.48 12.9 105.48 14.06C105.48 15.22 105.22 16.23 104.71 17.11C104.2 17.99 103.43 18.67 102.41 19.15C102.22 19.24 102.02 19.31 101.81 19.38L106.23 27.02H102.8H102.79ZM125.14 17.39C124.63 18.31 123.86 19.05 122.84 19.58C121.82 20.12 120.53 20.39 118.98 20.39H114.89V27.03H111.88V8.15998H119C120.55 8.15998 121.84 8.42998 122.86 8.95998C123.88 9.48998 124.64 10.22 125.15 11.15C125.66 12.07 125.91 13.11 125.91 14.27C125.91 15.43 125.65 16.47 125.14 17.4V17.39ZM143.53 27.02L139.47 19.87C139.4 19.87 139.35 19.87 139.28 19.87H135.19V27.01H132.18V8.13998H139.3C140.85 8.13998 142.13 8.38999 143.16 8.89999C144.18 9.39999 144.95 10.1 145.46 10.99C145.97 11.88 146.22 12.9 146.22 14.06C146.22 15.22 145.96 16.23 145.45 17.11C144.94 17.99 144.17 18.67 143.15 19.15C142.96 19.24 142.76 19.31 142.55 19.38L146.97 27.02H143.54H143.53ZM155.63 27.02H152.62V8.14999H155.63V27.02ZM175.96 24.65C175.38 25.48 174.54 26.13 173.44 26.61C172.34 27.09 171.01 27.33 169.45 27.33C167.89 27.33 166.66 27.11 165.57 26.66C164.48 26.21 163.62 25.57 163.01 24.75C162.39 23.92 162.05 22.94 161.99 21.81H165.01C165.07 22.49 165.3 23.06 165.72 23.51C166.13 23.96 166.66 24.3 167.31 24.51C167.96 24.73 168.67 24.84 169.44 24.84C170.29 24.84 171.05 24.71 171.72 24.46C172.39 24.21 172.91 23.85 173.29 23.39C173.67 22.93 173.87 22.4 173.87 21.78C173.87 21.22 173.7 20.76 173.37 20.41C173.04 20.05 172.58 19.76 172.02 19.53C171.45 19.3 170.81 19.09 170.09 18.91L167.73 18.3C166.13 17.89 164.87 17.28 163.93 16.48C163 15.68 162.53 14.62 162.53 13.31C162.53 12.22 162.84 11.27 163.47 10.46C164.09 9.64998 164.94 9.01998 166 8.56998C167.07 8.11998 168.27 7.88998 169.61 7.88998C170.95 7.88998 172.16 8.10999 173.19 8.55999C174.23 9.00999 175.04 9.61999 175.64 10.41C176.24 11.19 176.55 12.09 176.58 13.11H173.68C173.58 12.24 173.15 11.56 172.39 11.08C171.64 10.6 170.69 10.36 169.54 10.36C168.72 10.36 168.01 10.48 167.42 10.72C166.82 10.96 166.36 11.29 166.03 11.72C165.7 12.15 165.54 12.62 165.54 13.15C165.54 13.6 165.65 13.99 165.88 14.31C166.1 14.64 166.4 14.91 166.77 15.13C167.14 15.35 167.53 15.53 167.95 15.67C168.37 15.81 168.78 15.93 169.17 16.02L171.12 16.5C171.76 16.65 172.41 16.85 173.08 17.1C173.75 17.35 174.37 17.68 174.94 18.1C175.51 18.51 175.97 19.02 176.33 19.63C176.68 20.24 176.86 20.97 176.86 21.81C176.86 22.88 176.57 23.83 175.99 24.66L175.96 24.65ZM195.8 27.02H183.17V8.14999H195.69V10.6H186.19V16.35H195.04V18.79H186.19V24.57H195.81V27.02H195.8Z" fill="#0A95D3"/>
</svg>
